dist/images/icons/time.svg

<svg width="28" height="29" viewBox="0 0 28 29" fill="none" xmlns="http://www.w3.org/2000/svg">
<path d="M14 0.304199C6.28037 0.304199 0 6.58457 0 14.3042C0 22.0238 6.28037 28.3042 14 28.3042C21.7196 28.3042 28 22.0238 28 14.3042C28 6.58457 21.7196 0.304199 14 0.304199ZM14 26.6636C7.18501 26.6636 1.64062 21.1192 1.64062 14.3042C1.64062 7.48921 7.18501 1.94482 14 1.94482C20.815 1.94482 26.3594 7.48921 26.3594 14.3042C26.3594 21.1192 20.815 26.6636 14 26.6636Z" fill="#00B4E3"/>
<path d="M14 3.58545C8.08965 3.58545 3.28125 8.39385 3.28125 14.3042C3.28125 20.2146 8.08965 25.0229 14 25.0229C19.9104 25.0229 24.7188 20.2146 24.7188 14.3042C24.7188 8.39385 19.9104 3.58545 14 3.58545ZM14 23.3823C8.99429 23.3823 4.92188 19.3099 4.92188 14.3042C4.92188 9.29849 8.99429 5.22607 14 5.22607C19.0057 5.22607 23.0781 9.29849 23.0781 14.3042C23.0781 19.3099 19.0057 23.3823 14 23.3823Z" fill="#00B4E3"/>
<path d="M19.8391 9.62508L18.6791 8.46505L14 13.1441L9.3403 8.48441L8.18021 9.6445L12.8399 14.3042L11.6798 15.4643L12.8399 16.6244L14 15.4643L15.1601 16.6244L16.3202 15.4643L15.1601 14.3042L19.8391 9.62508Z" fill="#00B4E3"/>
<path d="M13.1797 6.8667H14.8203V8.50732H13.1797V6.8667Z" fill="#00B4E3"/>
<path d="M13.1797 20.1011H14.8203V21.7417H13.1797V20.1011Z" fill="#00B4E3"/>
<path d="M6.5625 13.4839H8.20312V15.1245H6.5625V13.4839Z" fill="#00B4E3"/>
<path d="M19.7969 13.4839H21.4375V15.1245H19.7969V13.4839Z" fill="#00B4E3"/>
</svg>

<svg width="28" height="29" viewBox="0 0 28 29" fill="none" xmlns="http://www.w3.org/2000/svg"><path d="M14 .304c-7.72 0-14 6.28-14 14s6.28 14 14 14 14-6.28 14-14-6.28-14-14-14zm0 26.36c-6.815 0-12.36-5.545-12.36-12.36C1.64 7.49 7.186 1.944 14 1.944c6.815 0 12.36 5.545 12.36 12.36 0 6.815-5.545 12.36-12.36 12.36z" fill="#00B4E3"/><path d="M14 3.585c-5.91 0-10.719 4.809-10.719 10.72 0 5.91 4.809 10.718 10.719 10.718 5.91 0 10.719-4.808 10.719-10.719 0-5.91-4.809-10.719-10.719-10.719zm0 19.797c-5.006 0-9.078-4.072-9.078-9.078 0-5.006 4.072-9.078 9.078-9.078 5.006 0 9.078 4.072 9.078 9.078 0 5.006-4.072 9.078-9.078 9.078z" fill="#00B4E3"/><path d="M19.84 9.625l-1.16-1.16-4.68 4.68-4.66-4.66-1.16 1.16 4.66 4.66-1.16 1.16 1.16 1.16 1.16-1.16 1.16 1.16 1.16-1.16-1.16-1.16 4.68-4.68z" fill="#00B4E3"/><path d="M13.18 6.867h1.64v1.64h-1.64v-1.64zm0 13.234h1.64v1.64h-1.64v-1.64zm-6.617-6.617h1.64v1.64h-1.64v-1.64zm13.234 0h1.64v1.64h-1.64v-1.64z" fill="#00B4E3"/></svg>
